X: 200
T:Tour
M:2/4
L:1/8
Q:60
C:trad
R:An dro
K:F
G/2|Ac c>B|GB A>G|Ac c>B|GB A3/2:|
|G/2|Ac cB|AB G||:F|GG Ac/2B/2|Ac BG/2G/2|
GG Ac/2B/2|AB G:||
W:
W: From "Falaleiro" http://home.t-online.de/home/pheld/homepage.htm

